X:76
T: Rogero
M:4/4
L:1/4
S:BBBM
K:C
c/d/ | eeff | e>feg | fedc | B>cBB/B/ | ddcB/A/ | B/>A/B/c/Be | dccB | c>cc |]

